images/icons/heart.svg

<svg width="65" height="61" viewBox="0 0 65 61" fill="none" xmlns="http://www.w3.org/2000/svg">
<path d="M50.106 0.350206C42.937 -0.775344 35.1981 3.15346 32.7207 10.1404C31.4711 6.80619 28.8841 4.02417 25.8587 2.28275C20.7944 -0.626689 15.8397 -0.669161 10.4246 1.66689C6.23722 3.49325 2.97063 8.25029 1.23868 12.4127C-0.953663 17.6582 0.164433 24.0929 1.52369 29.4021C1.78677 30.4003 3.25563 29.9755 3.01448 28.9774C0.734439 20.1004 1.10714 10.3103 8.95573 4.36396C12.6389 1.58194 18.9747 0.58381 23.0744 2.51636C27.3714 4.53385 31.6246 8.50514 31.9534 13.6657C32.0192 14.685 33.4004 14.685 33.488 13.6657C34.2992 4.19407 45.5459 -0.860292 53.4384 3.00481C61.8131 7.10351 65.3647 18.72 62.6024 27.5121C60.8704 33.0549 53.9426 31.6745 49.4045 31.717C46.8175 31.7382 44.2305 31.7594 41.6655 31.7382C41.3147 31.7382 39.8897 31.7382 39.9335 31.7594C39.517 31.5046 38.4866 28.3191 38.2454 27.682C37.9166 26.8113 36.8423 27.0024 36.7327 27.8943C36.2285 32.0143 35.1762 36.028 34.365 40.0843C33.5538 33.2672 33.225 26.3865 32.1288 19.612C31.9973 18.8262 30.8134 18.8899 30.638 19.612C29.5857 24.3478 28.5114 29.0836 27.4591 33.8194C26.9768 31.6108 26.5164 29.4234 26.0341 27.2148C25.8806 26.4927 24.6748 26.429 24.5433 27.2148C24.3679 28.2978 24.1048 31.271 23.4033 31.8019C22.921 32.1629 21.0794 31.7807 20.4436 31.7807C17.6374 31.7594 14.8531 31.7382 12.0469 31.717C8.99958 31.6957 4.19834 31.0586 4.32988 35.7944C4.39565 38.2791 6.63184 40.7851 8.05687 42.6114C10.1177 45.266 12.5731 47.5596 15.1601 49.6408C20.4875 53.9519 26.4287 57.2648 32.1946 60.8963C32.4357 61.045 32.7426 61.0237 32.9619 60.8963C43.3974 55.0137 51.7941 47.4109 59.2042 37.8332C59.8181 37.0474 58.7438 35.9006 58.1081 36.7076C53.2191 43.0362 47.8041 49.0462 41.3147 53.6758C39.2539 55.1624 34.7377 59.3885 32.1507 59.0275C30.9449 58.8576 29.2787 57.2648 28.2264 56.6277C26.6041 55.6296 25.0037 54.6527 23.4033 53.6121C19.8955 51.3398 16.4535 48.9188 13.3843 46.073C11.5427 44.3529 2.291 35.221 8.38572 33.2885C10.6877 32.5452 14.4366 33.331 16.8482 33.3522C19.2378 33.3734 21.6275 33.3947 24.0171 33.3947C24.3679 33.3947 24.6529 33.1398 24.7625 32.8213C24.9379 32.2266 25.1133 31.6108 25.2887 31.0161C25.771 33.2248 26.2314 35.4334 26.7137 37.6208C26.8672 38.3853 28.0291 38.3853 28.2045 37.6208C29.213 33.1186 30.2215 28.6164 31.2299 24.1142C32.1069 31.186 32.4138 38.3216 33.5538 45.351C33.7073 46.3066 34.9788 45.9456 35.0665 45.1386C35.6585 40.3391 36.9739 35.6882 37.8289 30.9524C38.3551 32.1417 39.0785 33.0761 40.4816 33.3097C43.9674 33.9043 48.0671 33.3097 51.5968 33.2885C54.8415 33.2672 59.1604 34.0105 61.857 31.7594C64.2028 29.8056 64.6851 26.3228 64.9263 23.4346C65.6936 13.602 60.4539 1.9642 50.106 0.350206Z" fill="#2B3541"/>
</svg>

<svg xmlns="http://www.w3.org/2000/svg" width="65" height="61" fill="none"><path fill="#2B3541" d="M50.106.35c-7.169-1.125-14.908 2.803-17.385 9.79-1.25-3.334-3.837-6.116-6.862-7.857-5.065-2.91-10.02-2.952-15.434-.616C6.237 3.493 2.97 8.25 1.239 12.413c-2.193 5.245-1.075 11.68.285 16.99.263.997 1.732.573 1.49-.426C.734 20.1 1.107 10.31 8.956 4.364c3.683-2.782 10.019-3.78 14.118-1.848 4.297 2.018 8.55 5.99 8.88 11.15.065 1.019 1.446 1.019 1.534 0C34.299 4.194 45.546-.86 53.438 3.005c8.375 4.099 11.927 15.715 9.164 24.507-1.732 5.543-8.66 4.162-13.197 4.205-2.587.021-5.175.042-7.74.021-.35 0-1.775 0-1.731.021-.417-.254-1.447-3.44-1.689-4.077-.328-.87-1.403-.68-1.512.212-.505 4.12-1.557 8.134-2.368 12.19-.811-6.817-1.14-13.698-2.236-20.472-.132-.786-1.316-.722-1.491 0-1.052 4.736-2.127 9.472-3.179 14.207-.482-2.208-.943-4.396-1.425-6.604-.153-.722-1.36-.786-1.49 0-.176 1.083-.44 4.056-1.14 4.587-.483.36-2.325-.021-2.96-.021l-8.397-.064C9 31.696 4.198 31.059 4.33 35.794c.066 2.485 2.302 4.991 3.727 6.817 2.06 2.655 4.516 4.949 7.103 7.03 5.328 4.31 11.269 7.624 17.035 11.255a.762.762 0 0 0 .767 0c10.435-5.882 18.832-13.485 26.242-23.063.614-.786-.46-1.932-1.096-1.125-4.889 6.328-10.304 12.338-16.793 16.968-2.061 1.486-6.577 5.712-9.164 5.352-1.206-.17-2.872-1.763-3.925-2.4-1.622-.998-3.222-1.975-4.823-3.016-3.508-2.272-6.95-4.693-10.019-7.539-1.841-1.72-11.093-10.852-4.998-12.785 2.302-.743 6.05.043 8.462.064 2.39.021 4.78.043 7.17.043.35 0 .635-.255.744-.574.176-.594.351-1.21.527-1.805.482 2.209.942 4.417 1.425 6.605.153.764 1.315.764 1.49 0l3.026-13.507c.877 7.072 1.184 14.208 2.324 21.237.153.956 1.425.595 1.512-.212.592-4.8 1.908-9.45 2.763-14.187.526 1.19 1.25 2.124 2.653 2.358 3.485.594 7.585 0 11.115-.022 3.245-.02 7.563.723 10.26-1.529 2.346-1.953 2.828-5.436 3.07-8.324.767-9.833-4.473-21.47-14.821-23.085Z"/></svg>
